_/img/chevron-up-black.svg

<svg width="18" height="18" viewBox="0 0 18 18" fill="none" xmlns="http://www.w3.org/2000/svg">
<path d="M13.8305 12.6381C14.1 12.9526 14.5735 12.989 14.888 12.7194C15.2025 12.4499 15.2389 11.9764 14.9693 11.6619L13.8305 12.6381ZM8.9999 5.85001L9.56934 5.36191C9.42686 5.19568 9.21885 5.10001 8.9999 5.10001C8.78096 5.10001 8.57295 5.19568 8.43046 5.36191L8.9999 5.85001ZM3.03046 11.6619C2.76089 11.9764 2.79731 12.4499 3.11181 12.7194C3.4263 12.989 3.89978 12.9526 4.16934 12.6381L3.03046 11.6619ZM14.9693 11.6619L9.56934 5.36191L8.43046 6.3381L13.8305 12.6381L14.9693 11.6619ZM8.43046 5.36191L3.03046 11.6619L4.16934 12.6381L9.56934 6.3381L8.43046 5.36191Z" fill="#0C152E"/>
</svg>

<svg width="18" height="18" viewBox="0 0 18 18" fill="none" xmlns="http://www.w3.org/2000/svg"><path d="M13.83 12.638a.75.75 0 101.14-.976l-1.14.976zM9 5.85l.57-.488a.75.75 0 00-1.14 0L9 5.85zm-5.97 5.812a.75.75 0 101.14.976l-1.14-.976zm11.94 0l-5.4-6.3-1.14.976 5.4 6.3 1.14-.976zm-6.54-6.3l-5.4 6.3 1.14.976 5.4-6.3-1.14-.976z" fill="#0C152E"/></svg>
